X: 797
T: Wakefield Jigg
M:6/8
L:1/8
S: 8: MCJLSH3 http://www.cpartington.plus.com/links/Walsh.abc
Z: Pete Stewart 2004
B: Walsh "Third Book of the most Celebrated jiggs, Lancashire hornpipes, ..."
K:Gmin
d | g2a bag | ^fga dcB | ABc BAG | ^F2G AFD | g2a bag | ^fga dcB | ABc BAG | G2^FG2 ||
fg2fed | cde dcB | ABc def | c3B3 | bag ^f2g | a3ABG | bg2bg2 | dg^fg3 ||

%%sep 1 1 500
%%sep 1 1 500
